X:2028
T:Bluebell Polka
R:Polka
C:Trad.
O:Scotland
Z:Paul Hardy's Session Tunebook 2015 (see www.paulhardy.net). Creative Commons cc by-nc-sa licenced.
M:2/2
L:1/8
Q:1/2=70
K:G
(3Bdg|:"G"b2b2 "C"gfge|"G"d2d2 B2G2|"D7"FGAB c2e2|"G"ed^cd B2 (3Bdg|
"G"b2b2 "C"gfge|"G"d2d2 B2G2|"D7"FGAB cdef|"G"g2g2 g2z2:|
[K:D]|:"D"A2A2 FAdf|a2a2 f3f|"A7"a2^ga =g2e2|"D"b2a2 ^g2a2|
"D"A2A2 FAdf|a2a2 f3f|"A7"a2^g2 =g2e2|"D"d2f2d2z2:|
[K:G]|:"G"b2b2 "C"gfge|"G"d2d2 B2G2|"D7"FGAB c2e2|"G"ed^cd B2 (3Bdg|
"G"b2b2 "C"gfge|"G"d2d2 B2G2|"D7"FGAB cdef|"G"g2g2 g2z2!fine!:|
[K:C]|:"C"e2e2 efg2|e2e2 efg2|"G7"f2f2 fdB2|fefg fdB2|
"C"e2e2 efg2|e2e2 efg2|"G7"f2f2 fdBd|"C"c2c2c2"^D.C."z2:|

